X:1
T:Hogarth, LM
T:Hogarth, LM
T:Anonymous, 1865
T:Public Domain Courtesy of the Cyber Hymnal™
C:Anonymous, 1865
Z:Public Domain
Z:Courtesy of the Cyber Hymnal™
%%score ( 1 2 ) ( 3 4 )
L:1/8
Q:1/4=140
M:6/4
K:D
V:1 treble 
V:2 treble 
V:3 bass 
V:4 bass 
V:1
 D4 | [DF]2 [DG]2 [EA]4 [DF]4 | [DE]2 [CE]2 D4 [CE]4 | [DF]2 [EA]2 [Dd]4 [DB]4 | %4
 [CA]2 [B,^G]2 [CA]4 [DA]4 | [Dd]2 [DB]2 [DA]4 [DB]4 | [DA]2 [DF]2 [CE]4 D4 | %7
 [DF]2 [DG]2 [EA]4 [DF]4 | [DE]2 [CE]2 D4 |] %9
V:2
 D4 | x12 | x4 D4 x4 | x12 | x12 | x12 | x8 D4 | x12 | x4 D4 |] %9
V:3
 [D,F,]4 | [D,A,]2 [B,,B,]2 [A,,C]4 [B,,D]4 | [G,,B,]2 (A,G,) [D,F,]4 [A,,A,]4 | %3
 [D,A,]2 [C,A,]2 [B,,B,]4 [D,F,]4 | E,2 E,2 [A,,E,]4 [D,F,]4 | [D,B,]2 [D,G,]2 [D,F,]4 G,4 | %6
 [F,A,]2 [D,A,]2 [A,,A,]4 [D,F,]4 | [D,A,]2 [B,,B,]2 [A,,C]4 [B,,D]4 | [G,,B,]2 (A,G,) [D,F,]4 |] %9
V:4
 x4 | x12 | x2 A,,2 x8 | x12 | E,2 E,2 x8 | x8 G,4 | x12 | x12 | x2 A,,2 x4 |] %9

